X: 42982
T: Willie O'Connell's
R: jig
M: 6/8
K: Dmajor
edB AGA|BGE DB,D|GFG AGA|BAA ABd|
edB AGA|BGE DB,D|GFG AGA|BGG G3:|
GBd e2 e|dBG ABA|GBd edB|dBG A2 d|
GBd e2 d|(3efg e dBA|GFG AGA|BGG G3:|

